svg/color/sc.svg

<svg height="32" viewBox="0 0 32 32" width="32" xmlns="http://www.w3.org/2000/svg"><g fill="none" fill-rule="evenodd"><circle cx="16" cy="16" fill="#20ee82" r="16"/><path d="m16.0000108 7.5c4.6944383 0 8.4999892 3.8054751 8.4999892 8.5000718v8.4999282h-8.4999892c-4.694546 0-8.5000108-3.8055469-8.5000108-8.4999282 0-4.6945967 3.8054648-8.5000718 8.5000108-8.5000718zm5.1000797 13.6001005v-5.0229916c0-2.819357-2.2551405-5.1631374-5.0744198-5.1770658-2.8323317-.0139284-5.1396107 2.2932359-5.1256248 5.1256599.013986 2.8192852 2.3576799 5.0743975 5.1770668 5.0743975z" fill="#fff"/></g></svg>

<svg xmlns="http://www.w3.org/2000/svg" width="32" height="32" viewBox="0 0 32 32">
  <g fill="none" fill-rule="evenodd">
    <circle cx="16" cy="16" r="16" fill="#20EE82"/>
    <path fill="#FFF" d="M16.0000108,7.5 C20.6944491,7.5 24.5,11.3054751 24.5,16.0000718 L24.5,24.5 L16.0000108,24.5 C11.3054648,24.5 7.5,20.6944531 7.5,16.0000718 C7.5,11.3054751 11.3054648,7.5 16.0000108,7.5 Z M21.1000905,21.1001005 L21.1000905,16.0771089 C21.1000905,13.2577519 18.84495,10.9139715 16.0256707,10.9000431 C13.193339,10.8861147 10.88606,13.193279 10.9000459,16.025703 C10.9140319,18.8449882 13.2577258,21.1001005 16.0771127,21.1001005 L21.1000905,21.1001005 Z"/>
  </g>
</svg>
